assets/illustrations/default/Agent-flat-3.svg

<svg width="1080" height="1080" viewBox="0 0 1080 1080" fill="none" xmlns="http://www.w3.org/2000/svg">
<path d="M1029.07 578.104H951.475L951.903 335.666C952.284 280.387 930.894 227.179 892.358 187.544C873.818 168.261 851.581 152.912 826.976 142.415C802.371 131.917 775.903 126.487 749.152 126.448L322.832 125.558H322.47C295.781 125.551 269.365 130.912 244.791 141.323C220.217 151.734 197.989 166.982 179.428 186.159C140.748 225.659 119.168 278.797 119.355 334.082L118.926 576.52H41.3686L41.7645 334.082C41.5474 258.498 71.0911 185.865 124.007 131.892C149.774 105.318 180.622 84.1979 214.716 69.7861C248.81 55.3743 285.455 47.9654 322.47 48.0001H322.964L749.284 48.7259C786.381 48.7563 823.092 56.262 857.225 70.7947C891.357 85.3273 922.211 106.589 947.945 133.31C1000.63 187.443 1029.91 260.127 1029.46 335.666L1029.07 578.104Z" fill="#ACB8D6"/>
<path d="M99.3305 532.084H124.831V811.536H99.3305C72.9864 811.536 47.7213 801.071 29.0932 782.442C10.4652 763.814 5.47862e-06 738.549 5.47862e-06 712.205V631.448C-0.00432765 618.401 2.56173 605.481 7.55162 593.425C12.5415 581.37 19.8574 570.416 29.0816 561.189C38.3057 551.962 49.2573 544.642 61.3107 539.648C73.3642 534.655 86.2834 532.084 99.3305 532.084Z" fill="#E5EEFE"/>
<path d="M980.67 811.536H955.169V532.084H980.67C993.714 532.084 1006.63 534.653 1018.68 539.645C1030.73 544.637 1041.68 551.954 1050.91 561.177C1060.13 570.401 1067.45 581.351 1072.44 593.403C1077.43 605.454 1080 618.37 1080 631.415V712.172C1080 725.216 1077.43 738.133 1072.44 750.184C1067.45 762.236 1060.13 773.186 1050.91 782.409C1041.68 791.633 1030.73 798.95 1018.68 803.942C1006.63 808.933 993.714 811.503 980.67 811.503V811.536Z" fill="#E5EEFE"/>
<path d="M737.77 189.095H328.704C208.638 189.095 111.306 286.428 111.306 406.494V815.56C111.306 935.626 208.638 1032.96 328.704 1032.96H737.77C857.836 1032.96 955.169 935.626 955.169 815.56V406.494C955.169 286.428 857.836 189.095 737.77 189.095Z" fill="#F3C29F"/>
<path d="M826.94 521.065C826.94 521.065 955.169 643.884 955.169 723.421V472.043H809.753L826.94 521.065Z" fill="#211F3C"/>
<path d="M94.2173 420.316V351.962C94.2173 296.518 116.242 243.345 155.447 204.14C194.652 164.935 247.826 142.91 303.27 142.91H753.605C878.536 142.91 990.303 242.537 990.303 357.999C990.303 357.999 1013.96 585.625 704.419 503.152C704.419 503.152 414.114 401.116 280.969 476.332C183.024 531.49 110.877 652.23 111.306 740.773L110.91 733.417L94.2173 420.316Z" fill="#2C2A46"/>
<path fill-rule="evenodd" clip-rule="evenodd" d="M64.0978 805.076V876.028V877.71C65.9782 899.714 86.8603 941.314 152.41 941.314H444.958L445.024 901.727H152.476C147.89 901.727 107.907 901.1 103.685 874.708V811.535H99.3305C87.1745 811.535 75.2482 809.306 64.0978 805.076Z" fill="#ACB8D6"/>
<path d="M449.181 882.627H561.575C572.258 882.627 582.503 886.87 590.057 894.424C597.611 901.978 601.855 912.224 601.855 922.906V924.061C601.855 934.744 597.611 944.989 590.057 952.543C582.503 960.097 572.258 964.341 561.575 964.341H449.181C447.214 964.341 445.266 963.954 443.449 963.201C441.632 962.448 439.981 961.345 438.59 959.954C437.2 958.564 436.096 956.912 435.344 955.095C434.591 953.278 434.204 951.331 434.204 949.364V897.769C434.182 895.788 434.553 893.823 435.296 891.987C436.039 890.15 437.139 888.48 438.532 887.072C439.924 885.663 441.583 884.545 443.411 883.782C445.239 883.019 447.2 882.627 449.181 882.627Z" fill="#3A4A65"/>
</svg>

<svg width="1080" height="1080" fill="none" xmlns="http://www.w3.org/2000/svg"><path d="M1029.07 578.104h-77.595l.428-242.438a210.404 210.404 0 0 0-59.545-148.122 199.06 199.06 0 0 0-143.206-61.096l-426.32-.89h-.362a198.99 198.99 0 0 0-143.042 60.601 210.408 210.408 0 0 0-60.073 147.923l-.429 242.438H41.369l.395-242.438a287.63 287.63 0 0 1 82.243-202.19A276.068 276.068 0 0 1 322.47 48h.494l426.32.726a276.122 276.122 0 0 1 198.661 84.584 287.677 287.677 0 0 1 81.515 202.356l-.39 242.438Z" fill="#ACB8D6"/><path d="M99.33 532.084h25.501v279.452h-25.5A99.33 99.33 0 0 1 0 712.205v-80.757a99.337 99.337 0 0 1 29.08-70.259 99.337 99.337 0 0 1 70.25-29.105Zm881.34 279.452h-25.501V532.084h25.501a99.313 99.313 0 0 1 38.01 7.561 99.446 99.446 0 0 1 32.23 21.532 99.354 99.354 0 0 1 21.53 32.226 99.359 99.359 0 0 1 7.56 38.012v80.757a99.34 99.34 0 0 1-29.09 70.237 99.433 99.433 0 0 1-32.23 21.533 99.331 99.331 0 0 1-38.01 7.561v.033Z" fill="#E5EEFE"/><path d="M737.77 189.095H328.704c-120.066 0-217.398 97.333-217.398 217.399V815.56c0 120.066 97.332 217.4 217.398 217.4H737.77c120.066 0 217.399-97.334 217.399-217.4V406.494c0-120.066-97.333-217.399-217.399-217.399Z" fill="#F3C29F"/><path d="M826.94 521.065s128.229 122.819 128.229 202.356V472.043H809.753l17.187 49.022Z" fill="#211F3C"/><path d="M94.217 420.316v-68.354A209.051 209.051 0 0 1 303.27 142.91h450.335c124.931 0 236.698 99.627 236.698 215.089 0 0 23.657 227.626-285.884 145.153 0 0-290.305-102.036-423.45-26.82-97.945 55.158-170.092 175.898-169.663 264.441l-.396-7.356-16.693-313.101Z" fill="#2C2A46"/><path fill-rule="evenodd" clip-rule="evenodd" d="M64.098 805.076v72.634c1.88 22.004 22.762 63.604 88.312 63.604h292.548l.066-39.587H152.476c-4.586 0-44.569-.627-48.791-27.019v-63.173H99.33a99.312 99.312 0 0 1-35.232-6.459Z" fill="#ACB8D6"/><path d="M449.181 882.627h112.394a40.278 40.278 0 0 1 40.28 40.279v1.155a40.28 40.28 0 0 1-40.28 40.28H449.181a14.972 14.972 0 0 1-13.837-9.246 14.967 14.967 0 0 1-1.14-5.731v-51.595a14.969 14.969 0 0 1 4.328-10.697 14.957 14.957 0 0 1 10.649-4.445Z" fill="#3A4A65"/></svg>
